router-wireless-off.svg

<svg fill="currentColor" viewBox="0 0 24 24"><path d="m11.8 5.9-.8-.8C12.4 3.7 14.2 3 16 3s3.6.7 5 2.1l-.8.8C19 4.8 17.5 4.2 16 4.2s-3 .6-4.2 1.7M21 15c0-1.1-.9-2-2-2h-2V9h-2v2.8l6 6zm-2.5-7.5.8-.8c-.9-.9-2.1-1.4-3.3-1.4s-2.4.5-3.3 1.4l.8.8c.7-.7 1.6-1 2.5-1s1.8.3 2.5 1m3.6 14-1.3 1.3-1.7-1.8H5c-1.1 0-2-.9-2-2v-4c0-1.1.9-2 2-2h6.1L1.1 3l1.3-1.3zM8 16H6v2h2zm3.5 0h-2v2h2zm3.5.9-.9-.9H13v2h2z"/></svg>

<svg  viewBox="0 0 24 24" fill="currentColor"><path  d="M11.8 5.9L11 5.1C12.4 3.7 14.2 3 16 3S19.6 3.7 21 5.1L20.2 5.9C19 4.8 17.5 4.2 16 4.2S13 4.8 11.8 5.9M21 15C21 13.9 20.1 13 19 13H17V9H15V11.8L21 17.8V15M18.5 7.5L19.3 6.7C18.4 5.8 17.2 5.3 16 5.3S13.6 5.8 12.7 6.7L13.5 7.5C14.2 6.8 15.1 6.5 16 6.5C16.9 6.5 17.8 6.8 18.5 7.5M22.1 21.5L20.8 22.8L19.1 21H5C3.9 21 3 20.1 3 19V15C3 13.9 3.9 13 5 13H11.1L1.1 3L2.4 1.7L22.1 21.5M8 16H6V18H8V16M11.5 16H9.5V18H11.5V16M15 16.9L14.1 16H13V18H15V16.9Z"/></svg>
